X:1
T:Title
%%score 1 { 2 | 3 }
L:1/8
Q:1/4=112
M:4/4
K:Ab
V:1 treble nm="Grand Piano, Treble Clef"
V:2 bass nm="Choir Pad, Love�s Consecration, CM"
V:3 bass 
V:1
 [CE]2 [Ec]2 [Fd]2 [Ec]2 | [EA]2 [FA]2 [DF]2 [CE]2 | [EA]2 [EG]2 [EA]2 [Ed]2 | [Ec]2 [EB]6 | %4
w: By~Abram~Bowman~Kolb,~1902 * * *||||
 E2 [Ec]2 [Fd]2 [Ec]2 | [EA]2 [FA]2 [DF]2 [CE]2 | [Ee]2 [Ee]2 [Ad]2 [Ac]2 | [GB]2 [EA]6- | %8
w: ||||
 [EA]2 z2 z4 |] %9
w: |
V:2
 A,2 A,2 A,2 A,2 | A,2 A,2 A,2 A,2 | C2 D2 C2 B,2 | A,2[K:bass] G,6 | G,2 A,2 A,2 A,2 | %5
 A,2 A,2 A,2 A,2 | B,2[K:treble] C2 F2 E2 | D2 C6- | C2 z2 z4 |] %9
V:3
 A,,2 A,,2 A,,2 A,,2 | C,2 D,2 F,2 z2 | A,2 B,2 A,2 G,2 | z2 E,6 | E,2 A,,2 A,,2 A,,2 | %5
 C,2 D,2 F,2 z2 | G,2 A,2 D,2 E,2 | E,2 A,,6- | A,,2 z2 z4 |] %9

